X:2835
T:Chanter's Song, The
T:Chanter's Tune, The
T:Song of the Chanter, The
R:march
H:Played in Dmix or Amix
Z:id:hn-march-10
M:2/4
L:1/8
K:Dmix
DD AG/E/|DD cB/c/|dA AG/E/|cB/c/ AG/E/|
DD AG/E/|DD cB/c/|dA AG/E/|D2 D2:|
|:A>B cB/c/|A/G/A/B/ cB/c/|dA AG/E/|cB/c/ AG/E/|
DD AG/E/|DD cB/c/|dA AG/E/|D2 D2:|
K:Amix
AA ed/B/|AA gf/g/|ae ed/B/|gf/g/ ed/B/|
AA ed/B/|AA gf/g/|ae ed/B/|A2 A2:|
|:e>f gf/g/|e/d/e/f/ gf/g/|ae ed/B/|gf/g/ ed/B/|
AA ed/B/|AA gf/g/|ae ed/B/|A2 A2:|


